dist/img/icons/vk.svg

<svg width="27" height="27" viewBox="0 0 27 27" fill="none" xmlns="http://www.w3.org/2000/svg">
<path d="M13.36 -0.000244141C5.98138 -0.000244141 0 5.98114 0 13.3598C0 20.7384 5.98138 26.7198 13.36 26.7198C20.7386 26.7198 26.72 20.7384 26.72 13.3598C26.72 5.98114 20.7386 -0.000244141 13.36 -0.000244141ZM18.498 15.0729C18.498 15.0729 19.6796 16.2391 19.9704 16.7805C19.9788 16.7916 19.9829 16.8027 19.9857 16.8083C20.104 17.0073 20.1318 17.1618 20.0734 17.2773C19.976 17.4693 19.642 17.564 19.5279 17.5723H17.4404C17.2956 17.5723 16.9922 17.5348 16.6248 17.2815C16.3423 17.0839 16.064 16.7596 15.7926 16.4437C15.3877 15.9733 15.037 15.5669 14.6835 15.5669C14.6386 15.5669 14.594 15.5739 14.5513 15.5878C14.2841 15.6741 13.9417 16.0554 13.9417 17.0713C13.9417 17.3886 13.6912 17.5709 13.5145 17.5709H12.5584C12.2327 17.5709 10.5363 17.4568 9.03331 15.8717C7.19352 13.9303 5.53744 10.0365 5.52352 10.0003C5.41915 9.74838 5.63486 9.61339 5.87005 9.61339H7.97842C8.25954 9.61339 8.35139 9.78456 8.41541 9.93625C8.49056 10.113 8.76611 10.8158 9.2184 11.6063C9.95181 12.8949 10.4013 13.4182 10.7618 13.4182C10.8293 13.4174 10.8957 13.4002 10.9552 13.3681C11.4256 13.1065 11.3379 11.4295 11.317 11.0816C11.317 11.0162 11.3156 10.3315 11.0749 10.0031C10.9023 9.76508 10.6087 9.67462 10.4305 9.64122C10.5026 9.54173 10.5976 9.46106 10.7075 9.40603C11.0303 9.2446 11.6121 9.22094 12.1896 9.22094H12.5111C13.1373 9.22929 13.2988 9.26965 13.5256 9.3267C13.9849 9.43665 13.9946 9.73307 13.9542 10.7476C13.9417 11.0357 13.9292 11.3613 13.9292 11.7454C13.9292 11.8289 13.925 11.918 13.925 12.0126C13.9111 12.5289 13.8944 13.1148 14.259 13.3556C14.3066 13.3854 14.3615 13.4013 14.4177 13.4015C14.5443 13.4015 14.9256 13.4015 15.9582 11.6299C16.2767 11.0597 16.5534 10.4671 16.7863 9.85693C16.8072 9.82075 16.8684 9.70941 16.9408 9.66627C16.9942 9.63904 17.0534 9.62519 17.1133 9.62591H19.5919C19.8619 9.62591 20.047 9.66627 20.0817 9.77065C20.143 9.93625 20.0706 10.4414 18.9392 11.9737L18.434 12.6403C17.4084 13.9846 17.4084 14.0528 18.498 15.0729Z" fill="white"/>
</svg>

<svg width="27" height="27" fill="none" xmlns="http://www.w3.org/2000/svg"><path d="M13.36 0C5.981 0 0 5.98 0 13.36c0 7.378 5.981 13.36 13.36 13.36s13.36-5.982 13.36-13.36C26.72 5.98 20.739 0 13.36 0zm5.138 15.073s1.182 1.166 1.472 1.707c.009.012.013.023.016.028.118.2.146.354.087.47-.097.191-.431.286-.545.294H17.44c-.144 0-.448-.037-.815-.29-.283-.198-.561-.522-.832-.838-.405-.47-.756-.877-1.11-.877a.427.427 0 00-.132.02c-.267.087-.61.468-.61 1.484 0 .318-.25.5-.427.5h-.956c-.325 0-2.022-.114-3.525-1.7-1.84-1.94-3.496-5.835-3.51-5.87-.104-.253.112-.388.347-.388h2.108c.282 0 .373.172.437.323.076.177.351.88.803 1.67.734 1.289 1.183 1.812 1.544 1.812a.418.418 0 00.193-.05c.47-.261.383-1.938.362-2.286 0-.066-.001-.75-.242-1.079-.173-.238-.466-.328-.644-.362.072-.1.167-.18.277-.235.322-.161.904-.185 1.482-.185h.321c.626.008.788.049 1.015.106.459.11.469.406.428 1.42-.012.289-.025.614-.025.998 0 .084-.004.173-.004.268-.014.516-.03 1.102.334 1.343a.3.3 0 00.159.046c.126 0 .508 0 1.54-1.772.319-.57.595-1.163.828-1.773.021-.036.082-.148.155-.19a.37.37 0 01.172-.041h2.479c.27 0 .455.04.49.145.061.165-.011.67-1.143 2.203l-.505.666c-1.026 1.345-1.026 1.413.064 2.433z" fill="#fff"/></svg>
